X:1
T:02-I Love Him From Afar
T:03-A Rose for My Beloved
T:For Children Nr 3 , Sz 42
T:Book 2 (after Slovakian Folksongs)
T:Béla Bartók Revised and Arranged by the Composer, January 1945 
T:04. Wedding Song
%%score { 1 | ( 2 3 4 ) }
L:1/8
Q:1/4=100
M:2/4
K:C
V:1 treble nm="Piano"
V:2 bass 
V:3 bass 
V:4 bass 
V:1
"^Allegretto" .!1!F!p!.F !tenuto!G2 | .c.c !tenuto!_B2 | (A._B).A.G | !^!!tenuto!F2 z2 | %4
 .F.F !tenuto!G2 | .c.c !tenuto!_B2 | (A._B).A.G | !^!!tenuto!F2 z2 | %8
!mf! .!1!!3![Ac].[Ac].[Ac].[Ac] | .[Ac].[_Bd] !tenuto![Ac]2 | .[Ac].[_Bd] !tenuto![Ac]2 | %11
"_dim." .!3!!5![Ac].[G_B].[FA].G | .!2!F.!4!A !tenuto!!1!C2 | .!3!F.!5!A !tenuto!C2 | %14
!p! .!2!F.!1!F !tenuto!G2 | .c.c !tenuto!_B2 | A_B.A.G | !tenuto!F2 z2 | %18
!f! .!1!!2!!4![FAc].[FAc].[FAc].[FAc] | .[FAc].!^!!5!d !tenuto![FAc]2 | .[FAc].!^!d [FAc]2 | %21
"_dim." .!1!!2!!4![FAc][I:staff +1].!5!!3!!1![^CE_B][I:staff -1].!2!!4![DFA][I:staff +1].!4!!2!!1![_B,^CG] | %22
[I:staff -1] .!2!F.!4!A !tenuto!C2 | .!3!F.!5!A !tenuto!!1!C2 | %24
!p! .!2!F.!1!F"^rit."[Q:1/4=80]"^T" !tenuto!G2 | .c.c !tenuto!_B2 | %26
!f!"^a tempo"[Q:1/4=100]"^T" A_B.A.G | !tenuto!F2 z2 |] %28
[M:2/4][Q:1/4=82]"^Andante"!p!"^dolce"!<(! (!tenuto!!1!F!tenuto!!1!F!tenuto!!1!F!tenuto!G | A4) | %30
 (!tenuto!!2!G!tenuto!!2!G!tenuto!!2!G!tenuto!!2!G | c4)!<)! |!>(! (cAGc | A4!>)! | G4) | (c4 | %36
[M:3/4] AG A G3) |[M:2/4] (FFc_B- | B4) | (!tenuto!!1!A!tenuto!!1!G_BA | G4 | F4- | F2) z2 | z4 |] %44
V:2
 z .!5!!3![F,A,] !tenuto![F,_B,]2 | z .!5!!1![F,E] !tenuto!!5!!2![F,D]2 | z .[F,C] z .[F,_B,] | %3
 !^!!tenuto![F,A,]2 z2 | z .[F,A,] !tenuto![F,_B,]2 | z .[F,E] !tenuto![F,D]2 | %6
 z .[F,C] z .[F,_B,] | [F,A,]2 z2 | .!1!F.!1!F.F.F | .F.!4!!2![CE] !tenuto!F2 | %10
 .F.[CE] !tenuto!F2 | .!1!F.!3!^C.!1!D.!3!!2![_B,^C] | z .!4!A, z .!2!!1![G,_B,] | %13
 z .!3!!1![F,A,] z .!5!!2![C,G,] | z .!4!!3!!1![_E,F,C] z .!5!!3!!1![D,F,B,] | %15
 z !5!!2!!1![A,,_E,^F,] z .!5!!3!!1![_B,,D,G,] | !tenuto!!4!!1![C,F,]2 .!4!!3![C,D,].!4!!2![C,E,] | %17
"^[  ]""_[  ]" !tenuto!!5!!1![F,,F,]2 z2 | z4 |[K:treble] z .!5!!3!!1![CE_B] z2 | z .[CE_B] z2 | %21
 x4 |[K:bass] z .A, z .[G,_B,] | z .[F,A,] z .[C,G,] | z .[_E,F,C] z .[D,F,B,] | %25
 z .[A,,_E,^F,] z .[_B,,D,G,] | !tenuto![C,F,]2 .[C,D,].[C,E,] |"^[  ]" !tenuto![F,,F,]2 z2 |] %28
[M:2/4] z4 | !tenuto!!3!F,(!2!F,G,F,) | (!2!F, C,3) | (!2!CDC_B,) | (!1!A, F,2 E,) | %33
 (!1!C !2!F,2 D,) | (F, E,2 C,) | z _E,3- |[M:3/4] [E,F,C]6 |[M:2/4] z4 | F,4 | z4 | %40
 (!1!F !2!E2 !4!C) | (!1!E D2 _B, | !1!C A,2 F,) | z4 |] %44
V:3
 x4 | x4 | x4 | x4 | x4 | x4 | x4 | x4 | x4 | x4 | x4 | x4 | x4 | x4 | x4 | x4 | x4 | x4 | x4 | %19
[K:treble] x4 | x4 | x4 |[K:bass] x4 | x4 | x4 | x4 | x4 | x4 |][M:2/4] x4 | x4 | x4 | x4 | x4 | %33
 x4 | x4 | x2 F,2- |[M:3/4] x6 |[M:2/4] x4 | (!2!F, D,2 C,) | x4 | x4 | x4 | x4 | x4 |] %44
V:4
 x4 | x4 | x4 | x4 | x4 | x4 | x4 | x4 | x4 | x4 | x4 | x4 | x4 | x4 | x4 | x4 | x4 | x4 | x4 | %19
[K:treble] x4 | x4 | x4 |[K:bass] x4 | x4 | x4 | x4 | x4 | x4 |][M:2/4] x4 | x4 | x4 | x4 | x4 | %33
 x4 | x4 | x !4!_E,!3!F,!1!C- |[M:3/4] x6 |[M:2/4] x4 | x4 | x4 | x4 | x4 | x4 | x4 |] %44

